images/gitkraken.svg

<svg viewBox="0 0 225 225" xmlns="http://www.w3.org/2000/svg"><path d="m197.7 68.93a3.64 3.64 0 0 0 -7 1.28 3.56 3.56 0 0 0 .23 1.27 83.79 83.79 0 0 1 -67.46 112.52v-39.1a58.23 58.23 0 0 0 7.28-1.94v32.85a77 77 0 0 0 19-142.22 3.63 3.63 0 0 0 -5 1.59 3.72 3.72 0 0 0 -.38 1.61 3.61 3.61 0 0 0 1.87 3.17 69.74 69.74 0 0 1 -8.24 125.89v-29.14a11.16 11.16 0 0 0 7.86-10.58 11 11 0 0 0 -5.48-9.64c2.62-25.13 14.1-18.49 14.1-26.49v-4.69c0-12-27.76-51.11-40.76-52-.4 0-.8 0-1.2 0s-.81 0-1.21 0c-13 .94-40.79 40-40.79 52.05v4.64c0 8 11.45 1.36 14.06 26.49a11 11 0 0 0 -5.46 9.64 11.16 11.16 0 0 0 7.88 10.58v29.14a69.74 69.74 0 0 1 -8.21-125.92 3.64 3.64 0 0 0 -1.79-6.82 3.53 3.53 0 0 0 -1.74.45 77 77 0 0 0 19 142.22v-32.85a58.23 58.23 0 0 0 7.28 1.94v39.13a83.79 83.79 0 0 1 -67.42-112.52 3.62 3.62 0 0 0 -2-4.62 3.55 3.55 0 0 0 -1.42-.3 3.64 3.64 0 0 0 -3.41 2.37 91.06 91.06 0 0 0 81.51 123v-46.11c1.3.07 3.69.11 3.69.11s2.39 0 3.69-.11v46.07a91.06 91.06 0 0 0 81.51-123zm-68.4 51.91a7.48 7.48 0 1 1 -2.19 5.29 7.46 7.46 0 0 1 2.19-5.29zm-33.59 10.58a7.48 7.48 0 1 1 2.19-5.29 7.43 7.43 0 0 1 -2.19 5.29z" fill="#179287"/></svg>

<svg xmlns="http://www.w3.org/2000/svg" viewBox="0 0 225 225"><defs><style>.cls-1{fill:#179287;}</style></defs><title>x</title><g id="Guides"><path class="cls-1" d="M197.7,68.93a3.64,3.64,0,0,0-7,1.28,3.56,3.56,0,0,0,.23,1.27A83.79,83.79,0,0,1,123.47,184v-39.1a58.23,58.23,0,0,0,7.28-1.94v32.85a77,77,0,0,0,19-142.22,3.63,3.63,0,0,0-5,1.59,3.72,3.72,0,0,0-.38,1.61,3.61,3.61,0,0,0,1.87,3.17A69.74,69.74,0,0,1,138,165.85V136.71a11.16,11.16,0,0,0,7.86-10.58,11,11,0,0,0-5.48-9.64C143,91.36,154.48,98,154.48,90V85.31c0-12-27.76-51.11-40.76-52-.4,0-.8,0-1.2,0s-.81,0-1.21,0c-13,.94-40.79,40-40.79,52.05V90c0,8,11.45,1.36,14.06,26.49a11,11,0,0,0-5.46,9.64A11.16,11.16,0,0,0,87,136.71v29.14A69.74,69.74,0,0,1,78.79,39.93,3.64,3.64,0,0,0,77,33.11a3.53,3.53,0,0,0-1.74.45,77,77,0,0,0,19,142.22V142.93a58.23,58.23,0,0,0,7.28,1.94V184A83.79,83.79,0,0,1,34.12,71.48a3.62,3.62,0,0,0-2-4.62,3.55,3.55,0,0,0-1.42-.3,3.64,3.64,0,0,0-3.41,2.37,91.06,91.06,0,0,0,81.51,123V145.82c1.3.07,3.69.11,3.69.11s2.39,0,3.69-.11v46.07a91.06,91.06,0,0,0,81.51-123Zm-68.4,51.91a7.48,7.48,0,1,1-2.19,5.29A7.46,7.46,0,0,1,129.3,120.84ZM95.71,131.42a7.48,7.48,0,1,1,2.19-5.29A7.43,7.43,0,0,1,95.71,131.42Z"/></g></svg>
